%
(Hobgoblin: Simple spur stack)
(Machine: machine.carvera_air.default)
(Path: path.feature.spur_20t.generated_shaping)
(Operation: op.feature.spur_20t.debug_spur_path)
(Tool: tool.v.60deg.3mm_flat)
G21
G90
G94
G17
G54
G0 Z5.000
M3 S12000
G0 X19.000 Z5.000
G0 X19.000 Y0.000 Z5.000 A0.000
G0 X19.000 Y0.000 Z-0.250 A0.000
G1 X33.000 Y0.000 Z-0.250 A0.000 F100.000
G0 X33.000 Y0.000 Z5.000 A0.000
G0 X19.000 Y0.346 Z5.000 A3.960
G0 X19.000 Y0.346 Z-0.250 A3.960
G1 X33.000 Y0.346 Z-0.250 A3.960 F100.000
G0 X33.000 Y0.346 Z5.000 A3.960
G0 X19.000 Y0.785 Z5.000 A9.000
G0 X19.000 Y0.785 Z-0.250 A9.000
G1 X33.000 Y0.785 Z-0.250 A9.000 F100.000
G0 X33.000 Y0.785 Z5.000 A9.000
G0 X19.000 Y1.225 Z5.000 A14.040
G0 X19.000 Y1.225 Z-0.250 A14.040
G1 X33.000 Y1.225 Z-0.250 A14.040 F100.000
G0 X33.000 Y1.225 Z5.000 A14.040
G0 X19.000 Y1.571 Z5.000 A18.000
G0 X19.000 Y1.571 Z-0.250 A18.000
G1 X33.000 Y1.571 Z-0.250 A18.000 F100.000
G0 X33.000 Y1.571 Z5.000 A18.000
G0 X19.000 Y1.916 Z5.000 A21.960
G0 X19.000 Y1.916 Z-0.250 A21.960
G1 X33.000 Y1.916 Z-0.250 A21.960 F100.000
G0 X33.000 Y1.916 Z5.000 A21.960
G0 X19.000 Y2.356 Z5.000 A27.000
G0 X19.000 Y2.356 Z-0.250 A27.000
G1 X33.000 Y2.356 Z-0.250 A27.000 F100.000
G0 X33.000 Y2.356 Z5.000 A27.000
G0 X19.000 Y2.796 Z5.000 A32.040
G0 X19.000 Y2.796 Z-0.250 A32.040
G1 X33.000 Y2.796 Z-0.250 A32.040 F100.000
G0 X33.000 Y2.796 Z5.000 A32.040
G0 X19.000 Y3.142 Z5.000 A36.000
G0 X19.000 Y3.142 Z-0.250 A36.000
G1 X33.000 Y3.142 Z-0.250 A36.000 F100.000
G0 X33.000 Y3.142 Z5.000 A36.000
G0 X19.000 Y3.487 Z5.000 A39.960
G0 X19.000 Y3.487 Z-0.250 A39.960
G1 X33.000 Y3.487 Z-0.250 A39.960 F100.000
G0 X33.000 Y3.487 Z5.000 A39.960
G0 X19.000 Y3.927 Z5.000 A45.000
G0 X19.000 Y3.927 Z-0.250 A45.000
G1 X33.000 Y3.927 Z-0.250 A45.000 F100.000
G0 X33.000 Y3.927 Z5.000 A45.000
G0 X19.000 Y4.367 Z5.000 A50.040
G0 X19.000 Y4.367 Z-0.250 A50.040
G1 X33.000 Y4.367 Z-0.250 A50.040 F100.000
G0 X33.000 Y4.367 Z5.000 A50.040
G0 X19.000 Y4.712 Z5.000 A54.000
G0 X19.000 Y4.712 Z-0.250 A54.000
G1 X33.000 Y4.712 Z-0.250 A54.000 F100.000
G0 X33.000 Y4.712 Z5.000 A54.000
G0 X19.000 Y5.058 Z5.000 A57.960
G0 X19.000 Y5.058 Z-0.250 A57.960
G1 X33.000 Y5.058 Z-0.250 A57.960 F100.000
G0 X33.000 Y5.058 Z5.000 A57.960
G0 X19.000 Y5.498 Z5.000 A63.000
G0 X19.000 Y5.498 Z-0.250 A63.000
G1 X33.000 Y5.498 Z-0.250 A63.000 F100.000
G0 X33.000 Y5.498 Z5.000 A63.000
G0 X19.000 Y5.938 Z5.000 A68.040
G0 X19.000 Y5.938 Z-0.250 A68.040
G1 X33.000 Y5.938 Z-0.250 A68.040 F100.000
G0 X33.000 Y5.938 Z5.000 A68.040
G0 X19.000 Y6.283 Z5.000 A72.000
G0 X19.000 Y6.283 Z-0.250 A72.000
G1 X33.000 Y6.283 Z-0.250 A72.000 F100.000
G0 X33.000 Y6.283 Z5.000 A72.000
G0 X19.000 Y6.629 Z5.000 A75.960
G0 X19.000 Y6.629 Z-0.250 A75.960
G1 X33.000 Y6.629 Z-0.250 A75.960 F100.000
G0 X33.000 Y6.629 Z5.000 A75.960
G0 X19.000 Y7.069 Z5.000 A81.000
G0 X19.000 Y7.069 Z-0.250 A81.000
G1 X33.000 Y7.069 Z-0.250 A81.000 F100.000
G0 X33.000 Y7.069 Z5.000 A81.000
G0 X19.000 Y7.508 Z5.000 A86.040
G0 X19.000 Y7.508 Z-0.250 A86.040
G1 X33.000 Y7.508 Z-0.250 A86.040 F100.000
G0 X33.000 Y7.508 Z5.000 A86.040
G0 X19.000 Y7.854 Z5.000 A90.000
G0 X19.000 Y7.854 Z-0.250 A90.000
G1 X33.000 Y7.854 Z-0.250 A90.000 F100.000
G0 X33.000 Y7.854 Z5.000 A90.000
G0 X19.000 Y8.200 Z5.000 A93.960
G0 X19.000 Y8.200 Z-0.250 A93.960
G1 X33.000 Y8.200 Z-0.250 A93.960 F100.000
G0 X33.000 Y8.200 Z5.000 A93.960
G0 X19.000 Y8.639 Z5.000 A99.000
G0 X19.000 Y8.639 Z-0.250 A99.000
G1 X33.000 Y8.639 Z-0.250 A99.000 F100.000
G0 X33.000 Y8.639 Z5.000 A99.000
G0 X19.000 Y9.079 Z5.000 A104.040
G0 X19.000 Y9.079 Z-0.250 A104.040
G1 X33.000 Y9.079 Z-0.250 A104.040 F100.000
G0 X33.000 Y9.079 Z5.000 A104.040
G0 X19.000 Y9.425 Z5.000 A108.000
G0 X19.000 Y9.425 Z-0.250 A108.000
G1 X33.000 Y9.425 Z-0.250 A108.000 F100.000
G0 X33.000 Y9.425 Z5.000 A108.000
G0 X19.000 Y9.770 Z5.000 A111.960
G0 X19.000 Y9.770 Z-0.250 A111.960
G1 X33.000 Y9.770 Z-0.250 A111.960 F100.000
G0 X33.000 Y9.770 Z5.000 A111.960
G0 X19.000 Y10.210 Z5.000 A117.000
G0 X19.000 Y10.210 Z-0.250 A117.000
G1 X33.000 Y10.210 Z-0.250 A117.000 F100.000
G0 X33.000 Y10.210 Z5.000 A117.000
G0 X19.000 Y10.650 Z5.000 A122.040
G0 X19.000 Y10.650 Z-0.250 A122.040
G1 X33.000 Y10.650 Z-0.250 A122.040 F100.000
G0 X33.000 Y10.650 Z5.000 A122.040
G0 X19.000 Y10.996 Z5.000 A126.000
G0 X19.000 Y10.996 Z-0.250 A126.000
G1 X33.000 Y10.996 Z-0.250 A126.000 F100.000
G0 X33.000 Y10.996 Z5.000 A126.000
G0 X19.000 Y11.341 Z5.000 A129.960
G0 X19.000 Y11.341 Z-0.250 A129.960
G1 X33.000 Y11.341 Z-0.250 A129.960 F100.000
G0 X33.000 Y11.341 Z5.000 A129.960
G0 X19.000 Y11.781 Z5.000 A135.000
G0 X19.000 Y11.781 Z-0.250 A135.000
G1 X33.000 Y11.781 Z-0.250 A135.000 F100.000
G0 X33.000 Y11.781 Z5.000 A135.000
G0 X19.000 Y12.221 Z5.000 A140.040
G0 X19.000 Y12.221 Z-0.250 A140.040
G1 X33.000 Y12.221 Z-0.250 A140.040 F100.000
G0 X33.000 Y12.221 Z5.000 A140.040
G0 X19.000 Y12.566 Z5.000 A144.000
G0 X19.000 Y12.566 Z-0.250 A144.000
G1 X33.000 Y12.566 Z-0.250 A144.000 F100.000
G0 X33.000 Y12.566 Z5.000 A144.000
G0 X19.000 Y12.912 Z5.000 A147.960
G0 X19.000 Y12.912 Z-0.250 A147.960
G1 X33.000 Y12.912 Z-0.250 A147.960 F100.000
G0 X33.000 Y12.912 Z5.000 A147.960
G0 X19.000 Y13.352 Z5.000 A153.000
G0 X19.000 Y13.352 Z-0.250 A153.000
G1 X33.000 Y13.352 Z-0.250 A153.000 F100.000
G0 X33.000 Y13.352 Z5.000 A153.000
G0 X19.000 Y13.792 Z5.000 A158.040
G0 X19.000 Y13.792 Z-0.250 A158.040
G1 X33.000 Y13.792 Z-0.250 A158.040 F100.000
G0 X33.000 Y13.792 Z5.000 A158.040
G0 X19.000 Y14.137 Z5.000 A162.000
G0 X19.000 Y14.137 Z-0.250 A162.000
G1 X33.000 Y14.137 Z-0.250 A162.000 F100.000
G0 X33.000 Y14.137 Z5.000 A162.000
G0 X19.000 Y14.483 Z5.000 A165.960
G0 X19.000 Y14.483 Z-0.250 A165.960
G1 X33.000 Y14.483 Z-0.250 A165.960 F100.000
G0 X33.000 Y14.483 Z5.000 A165.960
G0 X19.000 Y14.923 Z5.000 A171.000
G0 X19.000 Y14.923 Z-0.250 A171.000
G1 X33.000 Y14.923 Z-0.250 A171.000 F100.000
G0 X33.000 Y14.923 Z5.000 A171.000
G0 X19.000 Y15.362 Z5.000 A176.040
G0 X19.000 Y15.362 Z-0.250 A176.040
G1 X33.000 Y15.362 Z-0.250 A176.040 F100.000
G0 X33.000 Y15.362 Z5.000 A176.040
G0 X19.000 Y15.708 Z5.000 A180.000
G0 X19.000 Y15.708 Z-0.250 A180.000
G1 X33.000 Y15.708 Z-0.250 A180.000 F100.000
G0 X33.000 Y15.708 Z5.000 A180.000
G0 X19.000 Y16.054 Z5.000 A183.960
G0 X19.000 Y16.054 Z-0.250 A183.960
G1 X33.000 Y16.054 Z-0.250 A183.960 F100.000
G0 X33.000 Y16.054 Z5.000 A183.960
G0 X19.000 Y16.493 Z5.000 A189.000
G0 X19.000 Y16.493 Z-0.250 A189.000
G1 X33.000 Y16.493 Z-0.250 A189.000 F100.000
G0 X33.000 Y16.493 Z5.000 A189.000
G0 X19.000 Y16.933 Z5.000 A194.040
G0 X19.000 Y16.933 Z-0.250 A194.040
G1 X33.000 Y16.933 Z-0.250 A194.040 F100.000
G0 X33.000 Y16.933 Z5.000 A194.040
G0 X19.000 Y17.279 Z5.000 A198.000
G0 X19.000 Y17.279 Z-0.250 A198.000
G1 X33.000 Y17.279 Z-0.250 A198.000 F100.000
G0 X33.000 Y17.279 Z5.000 A198.000
G0 X19.000 Y17.624 Z5.000 A201.960
G0 X19.000 Y17.624 Z-0.250 A201.960
G1 X33.000 Y17.624 Z-0.250 A201.960 F100.000
G0 X33.000 Y17.624 Z5.000 A201.960
G0 X19.000 Y18.064 Z5.000 A207.000
G0 X19.000 Y18.064 Z-0.250 A207.000
G1 X33.000 Y18.064 Z-0.250 A207.000 F100.000
G0 X33.000 Y18.064 Z5.000 A207.000
G0 X19.000 Y18.504 Z5.000 A212.040
G0 X19.000 Y18.504 Z-0.250 A212.040
G1 X33.000 Y18.504 Z-0.250 A212.040 F100.000
G0 X33.000 Y18.504 Z5.000 A212.040
G0 X19.000 Y18.850 Z5.000 A216.000
G0 X19.000 Y18.850 Z-0.250 A216.000
G1 X33.000 Y18.850 Z-0.250 A216.000 F100.000
G0 X33.000 Y18.850 Z5.000 A216.000
G0 X19.000 Y19.195 Z5.000 A219.960
G0 X19.000 Y19.195 Z-0.250 A219.960
G1 X33.000 Y19.195 Z-0.250 A219.960 F100.000
G0 X33.000 Y19.195 Z5.000 A219.960
G0 X19.000 Y19.635 Z5.000 A225.000
G0 X19.000 Y19.635 Z-0.250 A225.000
G1 X33.000 Y19.635 Z-0.250 A225.000 F100.000
G0 X33.000 Y19.635 Z5.000 A225.000
G0 X19.000 Y20.075 Z5.000 A230.040
G0 X19.000 Y20.075 Z-0.250 A230.040
G1 X33.000 Y20.075 Z-0.250 A230.040 F100.000
G0 X33.000 Y20.075 Z5.000 A230.040
G0 X19.000 Y20.420 Z5.000 A234.000
G0 X19.000 Y20.420 Z-0.250 A234.000
G1 X33.000 Y20.420 Z-0.250 A234.000 F100.000
G0 X33.000 Y20.420 Z5.000 A234.000
G0 X19.000 Y20.766 Z5.000 A237.960
G0 X19.000 Y20.766 Z-0.250 A237.960
G1 X33.000 Y20.766 Z-0.250 A237.960 F100.000
G0 X33.000 Y20.766 Z5.000 A237.960
G0 X19.000 Y21.206 Z5.000 A243.000
G0 X19.000 Y21.206 Z-0.250 A243.000
G1 X33.000 Y21.206 Z-0.250 A243.000 F100.000
G0 X33.000 Y21.206 Z5.000 A243.000
G0 X19.000 Y21.646 Z5.000 A248.040
G0 X19.000 Y21.646 Z-0.250 A248.040
G1 X33.000 Y21.646 Z-0.250 A248.040 F100.000
G0 X33.000 Y21.646 Z5.000 A248.040
G0 X19.000 Y21.991 Z5.000 A252.000
G0 X19.000 Y21.991 Z-0.250 A252.000
G1 X33.000 Y21.991 Z-0.250 A252.000 F100.000
G0 X33.000 Y21.991 Z5.000 A252.000
G0 X19.000 Y22.337 Z5.000 A255.960
G0 X19.000 Y22.337 Z-0.250 A255.960
G1 X33.000 Y22.337 Z-0.250 A255.960 F100.000
G0 X33.000 Y22.337 Z5.000 A255.960
G0 X19.000 Y22.777 Z5.000 A261.000
G0 X19.000 Y22.777 Z-0.250 A261.000
G1 X33.000 Y22.777 Z-0.250 A261.000 F100.000
G0 X33.000 Y22.777 Z5.000 A261.000
G0 X19.000 Y23.216 Z5.000 A266.040
G0 X19.000 Y23.216 Z-0.250 A266.040
G1 X33.000 Y23.216 Z-0.250 A266.040 F100.000
G0 X33.000 Y23.216 Z5.000 A266.040
G0 X19.000 Y23.562 Z5.000 A270.000
G0 X19.000 Y23.562 Z-0.250 A270.000
G1 X33.000 Y23.562 Z-0.250 A270.000 F100.000
G0 X33.000 Y23.562 Z5.000 A270.000
G0 X19.000 Y23.908 Z5.000 A273.960
G0 X19.000 Y23.908 Z-0.250 A273.960
G1 X33.000 Y23.908 Z-0.250 A273.960 F100.000
G0 X33.000 Y23.908 Z5.000 A273.960
G0 X19.000 Y24.347 Z5.000 A279.000
G0 X19.000 Y24.347 Z-0.250 A279.000
G1 X33.000 Y24.347 Z-0.250 A279.000 F100.000
G0 X33.000 Y24.347 Z5.000 A279.000
G0 X19.000 Y24.787 Z5.000 A284.040
G0 X19.000 Y24.787 Z-0.250 A284.040
G1 X33.000 Y24.787 Z-0.250 A284.040 F100.000
G0 X33.000 Y24.787 Z5.000 A284.040
G0 X19.000 Y25.133 Z5.000 A288.000
G0 X19.000 Y25.133 Z-0.250 A288.000
G1 X33.000 Y25.133 Z-0.250 A288.000 F100.000
G0 X33.000 Y25.133 Z5.000 A288.000
G0 X19.000 Y25.478 Z5.000 A291.960
G0 X19.000 Y25.478 Z-0.250 A291.960
G1 X33.000 Y25.478 Z-0.250 A291.960 F100.000
G0 X33.000 Y25.478 Z5.000 A291.960
G0 X19.000 Y25.918 Z5.000 A297.000
G0 X19.000 Y25.918 Z-0.250 A297.000
G1 X33.000 Y25.918 Z-0.250 A297.000 F100.000
G0 X33.000 Y25.918 Z5.000 A297.000
G0 X19.000 Y26.358 Z5.000 A302.040
G0 X19.000 Y26.358 Z-0.250 A302.040
G1 X33.000 Y26.358 Z-0.250 A302.040 F100.000
G0 X33.000 Y26.358 Z5.000 A302.040
G0 X19.000 Y26.704 Z5.000 A306.000
G0 X19.000 Y26.704 Z-0.250 A306.000
G1 X33.000 Y26.704 Z-0.250 A306.000 F100.000
G0 X33.000 Y26.704 Z5.000 A306.000
G0 X19.000 Y27.049 Z5.000 A309.960
G0 X19.000 Y27.049 Z-0.250 A309.960
G1 X33.000 Y27.049 Z-0.250 A309.960 F100.000
G0 X33.000 Y27.049 Z5.000 A309.960
G0 X19.000 Y27.489 Z5.000 A315.000
G0 X19.000 Y27.489 Z-0.250 A315.000
G1 X33.000 Y27.489 Z-0.250 A315.000 F100.000
G0 X33.000 Y27.489 Z5.000 A315.000
G0 X19.000 Y27.929 Z5.000 A320.040
G0 X19.000 Y27.929 Z-0.250 A320.040
G1 X33.000 Y27.929 Z-0.250 A320.040 F100.000
G0 X33.000 Y27.929 Z5.000 A320.040
G0 X19.000 Y28.274 Z5.000 A324.000
G0 X19.000 Y28.274 Z-0.250 A324.000
G1 X33.000 Y28.274 Z-0.250 A324.000 F100.000
G0 X33.000 Y28.274 Z5.000 A324.000
G0 X19.000 Y28.620 Z5.000 A327.960
G0 X19.000 Y28.620 Z-0.250 A327.960
G1 X33.000 Y28.620 Z-0.250 A327.960 F100.000
G0 X33.000 Y28.620 Z5.000 A327.960
G0 X19.000 Y29.060 Z5.000 A333.000
G0 X19.000 Y29.060 Z-0.250 A333.000
G1 X33.000 Y29.060 Z-0.250 A333.000 F100.000
G0 X33.000 Y29.060 Z5.000 A333.000
G0 X19.000 Y29.500 Z5.000 A338.040
G0 X19.000 Y29.500 Z-0.250 A338.040
G1 X33.000 Y29.500 Z-0.250 A338.040 F100.000
G0 X33.000 Y29.500 Z5.000 A338.040
G0 X19.000 Y29.845 Z5.000 A342.000
G0 X19.000 Y29.845 Z-0.250 A342.000
G1 X33.000 Y29.845 Z-0.250 A342.000 F100.000
G0 X33.000 Y29.845 Z5.000 A342.000
G0 X19.000 Y30.191 Z5.000 A345.960
G0 X19.000 Y30.191 Z-0.250 A345.960
G1 X33.000 Y30.191 Z-0.250 A345.960 F100.000
G0 X33.000 Y30.191 Z5.000 A345.960
G0 X19.000 Y30.631 Z5.000 A351.000
G0 X19.000 Y30.631 Z-0.250 A351.000
G1 X33.000 Y30.631 Z-0.250 A351.000 F100.000
G0 X33.000 Y30.631 Z5.000 A351.000
G0 X19.000 Y31.070 Z5.000 A356.040
G0 X19.000 Y31.070 Z-0.250 A356.040
G1 X33.000 Y31.070 Z-0.250 A356.040 F100.000
G0 X33.000 Y31.070 Z5.000 A356.040
G0 X19.000 Y31.416 Z5.000 A360.000
G0 X19.000 Y31.416 Z-0.250 A360.000
G1 X33.000 Y31.416 Z-0.250 A360.000 F100.000
G0 X33.000 Y31.416 Z5.000 A360.000
G0 Z5.000
M5
M30
%
